icons/contraceptive_diaphragm.svg

<svg width="48" height="48" viewBox="0 0 48 48" fill="none" xmlns="http://www.w3.org/2000/svg">
<path d="M20.6264 17.2759C21.1553 17.1167 21.4549 16.559 21.2957 16.0301C21.1366 15.5013 20.5788 15.2016 20.0499 15.3608C18.3127 15.8838 16.7883 16.9489 15.6998 18.4003C14.6113 19.8518 14.0157 21.6134 14.0003 23.4276C13.9956 23.9799 14.4395 24.4314 14.9917 24.4361C15.544 24.4408 15.9955 23.9969 16.0002 23.4447C16.012 22.0573 16.4674 20.7102 17.2998 19.6003C18.1322 18.4903 19.2979 17.6758 20.6264 17.2759Z" fill="black"/>
<path fill-rule="evenodd" clip-rule="evenodd" d="M4.70101 27.3819C5.37158 26.1211 6.57205 25.1345 7.94516 24.6442C8.09987 22.7536 8.65265 20.681 9.61093 18.707C11.8424 14.1103 16.3637 9.8999 23.3941 9.8999C30.3352 9.8999 35.2095 13.5149 37.8282 17.8706C39.1319 20.0392 39.887 22.4057 40.061 24.6248L40.0636 24.6578C41.3303 25.2552 42.5096 26.3056 43.2 27.5885C43.9349 28.9541 44.1362 30.6449 43.1899 32.2563C42.2742 33.8156 40.3919 35.11 37.4012 36.0191C34.3933 36.9335 30.1337 37.4999 24.2532 37.4999C18.3676 37.4999 14.0474 36.9013 10.9578 35.9476C7.88345 34.9986 5.91932 33.6629 4.91683 32.103C3.882 30.4928 3.95936 28.7763 4.70101 27.3819ZM10.1012 25.571C10.0738 27.4002 10.5263 28.6388 11.1215 29.1986C11.564 29.6148 11.5854 30.3109 11.1692 30.7535C10.753 31.196 10.0569 31.2174 9.6143 30.8012C8.6166 29.863 8.10833 28.4146 7.95292 26.8335C7.31045 27.2005 6.78251 27.7274 6.46678 28.321C6.03665 29.1297 5.98732 30.0694 6.59933 31.0217C7.24367 32.0243 8.69988 33.1575 11.5477 34.0366C14.3804 34.911 18.4844 35.4999 24.2532 35.4999C30.0273 35.4999 34.0708 34.9412 36.8195 34.1056C39.5853 33.2648 40.9129 32.1842 41.4653 31.2435C41.9872 30.3548 41.9147 29.4206 41.4388 28.5363C41.1117 27.9285 40.6047 27.375 40.0211 26.9497C39.8584 28.3022 39.4393 29.5635 38.7269 30.6164C38.3864 31.1195 37.7026 31.2514 37.1994 30.9109C36.6963 30.5705 36.5644 29.8866 36.9049 29.3834C37.6565 28.2727 38.0145 26.6676 37.8678 24.7968C37.722 22.9378 37.0814 20.8982 35.9427 19.0042C33.6766 15.2349 29.4791 12.0999 23.3941 12.0999C17.3983 12.0999 13.5456 15.6395 11.5901 19.6678C10.6085 21.6898 10.1277 23.7979 10.1012 25.571Z" fill="black"/>
</svg>

<svg
  xmlns="http://www.w3.org/2000/svg"
  width="24"
  height="24"
  viewBox="0 0 24 24"
  fill="none"
  stroke="currentColor"
  stroke-width="2"
  stroke-linecap="round"
  stroke-linejoin="round"
>
  <path d="M20.626 17.276a1 1 0 1 0-.576-1.915A8.5 8.5 0 0 0 14 23.428a1 1 0 0 0 2 .017 6.5 6.5 0 0 1 4.626-6.17" />
  <path
    fill-rule="evenodd"
    d="M4.701 27.382c.67-1.26 1.871-2.248 3.244-2.738.155-1.89.708-3.963 1.666-5.937C11.842 14.11 16.364 9.9 23.394 9.9c6.941 0 11.816 3.615 14.434 7.97 1.304 2.17 2.059 4.536 2.233 6.755l.003.033c1.266.597 2.446 1.648 3.136 2.93.735 1.366.936 3.057-.01 4.668-.916 1.56-2.798 2.854-5.789 3.763-3.008.915-7.267 1.48-13.148 1.48-5.885 0-10.206-.598-13.295-1.551-3.075-.95-5.039-2.285-6.041-3.845-1.035-1.61-.958-3.327-.216-4.721m5.4-1.811c-.027 1.83.425 3.068 1.02 3.628A1.1 1.1 0 0 1 9.615 30.8c-.997-.938-1.506-2.386-1.661-3.967-.643.367-1.17.893-1.486 1.487-.43.809-.48 1.748.132 2.7.645 1.003 2.1 2.136 4.949 3.016 2.832.874 6.936 1.463 12.705 1.463 5.774 0 9.818-.559 12.566-1.394 2.766-.841 4.094-1.922 4.646-2.863.522-.888.45-1.822-.026-2.707-.327-.608-.834-1.161-1.418-1.586-.163 1.352-.582 2.614-1.294 3.666a1.1 1.1 0 0 1-1.822-1.233c.752-1.11 1.11-2.715.963-4.586-.146-1.86-.787-3.899-1.925-5.793-2.266-3.77-6.464-6.904-12.549-6.904-5.996 0-9.848 3.54-11.804 7.568-.982 2.022-1.462 4.13-1.489 5.903"
    clip-rule="evenodd"
  />
</svg>
